material/.icons/material/account-cancel-outline.svg

<svg xmlns="http://www.w3.org/2000/svg" viewBox="0 0 24 24"><path d="M10 4a4 4 0 00-4 4 4 4 0 004 4 4 4 0 004-4 4 4 0 00-4-4m0 2a2 2 0 012 2 2 2 0 01-2 2 2 2 0 01-2-2 2 2 0 012-2m0 7c-2.67 0-8 1.33-8 4v3h9.5a6.5 6.5 0 01-.47-1.9H3.9V17c0-.64 3.13-2.1 6.1-2.1.5 0 1 .05 1.5.13a6.5 6.5 0 011.05-1.74C11.61 13.1 10.71 13 10 13m7.5 0C15 13 13 15 13 17.5s2 4.5 4.5 4.5 4.5-2 4.5-4.5-2-4.5-4.5-4.5m0 1.5c1.66 0 3 1.34 3 3 0 .56-.15 1.08-.42 1.5L16 14.92c.42-.27.94-.42 1.5-.42M14.92 16L19 20.08c-.42.27-.94.42-1.5.42-1.66 0-3-1.34-3-3 0-.56.15-1.08.42-1.5z"/></svg>

<?xml version="1.0" encoding="UTF-8"?><!DOCTYPE svg PUBLIC "-//W3C//DTD SVG 1.1//EN" "http://www.w3.org/Graphics/SVG/1.1/DTD/svg11.dtd"><svg xmlns="http://www.w3.org/2000/svg" xmlns:xlink="http://www.w3.org/1999/xlink" version="1.1" id="mdi-account-cancel-outline" width="24" height="24" viewBox="0 0 24 24"><path d="M10 4A4 4 0 0 0 6 8A4 4 0 0 0 10 12A4 4 0 0 0 14 8A4 4 0 0 0 10 4M10 6A2 2 0 0 1 12 8A2 2 0 0 1 10 10A2 2 0 0 1 8 8A2 2 0 0 1 10 6M10 13C7.33 13 2 14.33 2 17V20H11.5A6.5 6.5 0 0 1 11.03 18.1H3.9V17C3.9 16.36 7.03 14.9 10 14.9C10.5 14.9 11 14.95 11.5 15.03A6.5 6.5 0 0 1 12.55 13.29C11.61 13.1 10.71 13 10 13M17.5 13C15 13 13 15 13 17.5C13 20 15 22 17.5 22C20 22 22 20 22 17.5C22 15 20 13 17.5 13M17.5 14.5C19.16 14.5 20.5 15.84 20.5 17.5C20.5 18.06 20.35 18.58 20.08 19L16 14.92C16.42 14.65 16.94 14.5 17.5 14.5M14.92 16L19 20.08C18.58 20.35 18.06 20.5 17.5 20.5C15.84 20.5 14.5 19.16 14.5 17.5C14.5 16.94 14.65 16.42 14.92 16Z" /></svg>
